X:1064
M:6/8
L:1/8
Q:3/8=120
K:D
f/g/|afd d>eg|b>ge e>fg|agf e2d|(c/d/ec) A2
f/g/|afd d>ed|b>ge e>fg|afd gec| ddd     d2:|

